X:1
T:Lulajze Jezuniu
B:Singing Together, Autumn 1972, BBC Publications
F:http://www.folkinfo.org/songs
M:3/4     %Meter
L:1/8     %
K:D
F2 FE F2 |G2 G2 F2 |E2 E2 (FG) |B2 A4 |
w:Lul-la--by lit-tle pearl, Dear ba-by_ Je-su,
F2 (FE) F2 |G2 G2 F2 |E2 A3 G |G2 F4 |:
w:Lul-la--by lit-tle pearl, Dear ba-by sleep-ing;
A2 A2 (dc) |B2 (BA) (BA) |G2 G2 B2 |B2 A4 |
w:Lul-la-by_ lit-tle_ one_ Dear ba-by Je-su,
F2 (FE) F2 |G2 G2 F2 |E2 A3 G |G2 F4 :|
w:Ma-ry_ is hold-ing you, Guard-ing and keep-ing.
W:Lullaby, little pearl,
W:Dear baby Jesu,
W:Lullaby, little pearl,
W:Dear baby sleeping;
W:Lullaby little one,
W:Dear baby Jesu,
W:Mary is holding you,
W:Guarding and keeping.
W:
W:Bring food for the little man,
W:Good things and pleasant;
W:Bring for the little man
W:Every sweet berry;
W:Into the garden go
W:Where all is pleasant;
W:Mary will comfort him
W:Keeping Him merry.
W:
W:Bread for His little mouth
W:With golden butter -
W:Bread for his little mouth,
W:A loaf to feed Him -
W:Put in His cradle mow
W:Good bread and butter.
W:If he should wake from rest
W:Mary will heed Him.
W:
